X: 37809
T: Sonny Brogan's
R: jig
M: 6/8
K: Edorian
|:~E3 ~G3|AGA ~B3|~E3 GAB|AGE DBD|
~E3 GEG|AGA BAB|e2B dBA|GED E3:|
|:B2e efe|dBc d3|e3 efe|dBA GED|
B2e efe|dBc d3|e2e dBA|1 GED EBA:|2 GED E3||

